assets/gcpdeveloperportal/original.svg

<svg height="24" width="24" xmlns="http://www.w3.org/2000/svg"><path d="m12 6.4a5.6 5.6 0 0 1 4 1.6l1-1a7.07 7.07 0 0 0 -10 0l1 1a5.6 5.6 0 0 1 4-1.6m0 11.2a5.6 5.6 0 0 1 -4-1.6l-1 1a7.07 7.07 0 0 0 10 0l-1-1a5.6 5.6 0 0 1 -4 1.6" fill="#4285f4"/><path d="m12 15.07a3.06 3.06 0 0 1 -3-2.34h-3.89v2.38l-3.11-3.11 3.11-3.1v2.38h3.89a3.06 3.06 0 0 1 3-2.34 3.06 3.06 0 0 1 3 2.34h3.91v-2.39l3.09 3.11-3.11 3.12v-2.39h-3.89a3.06 3.06 0 0 1 -3 2.34m0-4.68a1.61 1.61 0 1 0 1.61 1.61 1.61 1.61 0 0 0 -1.61-1.61" fill="#669df6"/></svg>

<svg xmlns="http://www.w3.org/2000/svg" width="24" height="24"><g data-name="Product Icons"><path d="M12 6.4A5.6 5.6 0 0 1 16 8l1-1A7.07 7.07 0 0 0 7 7l1 1a5.6 5.6 0 0 1 4-1.6m0 11.2A5.6 5.6 0 0 1 8 16l-1 1a7.07 7.07 0 0 0 10 0l-1-1a5.6 5.6 0 0 1-4 1.6" fill="#4285f4"/><path d="M12 15.07a3.06 3.06 0 0 1-3-2.34H5.11v2.38L2 12l3.11-3.1v2.38H9a3.06 3.06 0 0 1 3-2.34 3.06 3.06 0 0 1 3 2.34h3.91V8.89L22 12l-3.11 3.12v-2.39H15a3.06 3.06 0 0 1-3 2.34m0-4.68A1.61 1.61 0 1 0 13.61 12 1.61 1.61 0 0 0 12 10.39" fill="#669df6"/></g></svg>
